polaris-icons/icons/newicons/GlobeMajor.svg

<svg width="20" height="20" viewBox="0 0 20 20" fill="none" xmlns="http://www.w3.org/2000/svg">
<path fill-rule="evenodd" clip-rule="evenodd" d="M10 18C14.4183 18 18 14.4183 18 10C18 5.58172 14.4183 2 10 2C5.58172 2 2 5.58172 2 10C2 14.4175 5.5804 17.9987 9.99755 18H10ZM10.0012 16.5C10.1963 16.4997 10.4045 16.4197 10.6383 16.1689C10.8841 15.9051 11.1283 15.4791 11.3409 14.8769C11.5325 14.3341 11.6855 13.6858 11.7956 12.9578C11.218 12.9861 10.6164 13.0003 9.99992 13.0003C9.38348 13.0003 8.78194 12.9861 8.20438 12.9578C8.31454 13.6858 8.46753 14.3341 8.65913 14.8769C8.87174 15.4791 9.11585 15.9051 9.36171 16.1689C9.59595 16.4202 9.80462 16.5 10 16.5H10.0012ZM9.99992 11.5003C10.6816 11.5003 11.3373 11.4823 11.9548 11.4473C11.9847 10.9834 12 10.4994 12 10C12 9.46348 11.9823 8.94479 11.9479 8.44971C11.3248 8.48325 10.6717 8.50003 10 8.50003C9.32835 8.50003 8.67519 8.48324 8.05208 8.4497C8.01767 8.94478 8 9.46348 8 10C8 10.4994 8.01531 10.9834 8.04518 11.4473C8.66265 11.4823 9.31831 11.5003 9.99992 11.5003ZM8.21763 6.95632C8.32669 6.26317 8.4751 5.64448 8.65913 5.12313C8.87174 4.52085 9.11585 4.09489 9.36171 3.83111C9.59595 3.5798 9.80462 3.5 10 3.5C10.1954 3.5 10.404 3.5798 10.6383 3.83111C10.8841 4.09489 11.1283 4.52085 11.3409 5.12313C11.5249 5.64448 11.6733 6.26317 11.7824 6.95633C11.215 6.98528 10.6178 7.00003 10 7.00003C9.38222 7.00003 8.78497 6.98528 8.21763 6.95632ZM13.4432 8.33023C13.4812 8.8709 13.5 9.42995 13.5 10C13.5 10.4474 13.4884 10.8881 13.4651 11.3184C13.8687 11.2708 14.2452 11.2141 14.5897 11.1487C15.1955 11.0338 15.6762 10.8967 16.0218 10.7482C16.3004 10.6285 16.43 10.5274 16.4829 10.4746C16.4942 10.3179 16.5 10.1596 16.5 10C16.5 9.23161 16.3667 8.49436 16.1219 7.81012C15.4918 8.01587 14.7263 8.16821 13.8885 8.27712C13.7431 8.29602 13.5946 8.31373 13.4432 8.33023ZM15.4452 6.449C14.98 6.58278 14.3918 6.69907 13.6951 6.78964C13.5605 6.80713 13.4227 6.82357 13.2819 6.83893C13.1593 6.02156 12.9843 5.27239 12.7553 4.62382C12.6792 4.40811 12.5956 4.19922 12.5038 3.99974C13.7127 4.5048 14.7366 5.36457 15.4452 6.449ZM6.71809 6.83892C6.5773 6.82356 6.43953 6.80713 6.30497 6.78964C5.60828 6.69907 5.02005 6.58277 4.55482 6.44898C5.26345 5.36456 6.28727 4.5048 7.49621 3.99974C7.40442 4.19922 7.32082 4.40811 7.24467 4.62382C7.01573 5.27238 6.84073 6.02155 6.71809 6.83892ZM3.87812 7.8101C4.50821 8.01586 5.27377 8.1682 6.1116 8.27712C6.25699 8.29602 6.40545 8.31372 6.55676 8.33022C6.5188 8.87089 6.5 9.42994 6.5 10C6.5 10.4474 6.51158 10.8881 6.53492 11.3184C6.13127 11.2708 5.75467 11.2141 5.41015 11.1487C4.80435 11.0338 4.32366 10.8967 3.97799 10.7482C3.69971 10.6287 3.57016 10.5276 3.51707 10.4748C3.50576 10.318 3.5 10.1597 3.5 10C3.5 9.2316 3.63333 8.49434 3.87812 7.8101ZM12.7553 15.3762C13.0137 14.6443 13.2033 13.7844 13.3266 12.8429C13.8803 12.7853 14.3981 12.7118 14.8693 12.6224C15.3026 12.5402 15.7076 12.4425 16.0712 12.3267C15.4351 13.9855 14.1387 15.3172 12.5038 16.0003C12.5956 15.8008 12.6792 15.5919 12.7553 15.3762ZM7.49621 16.0003C5.86131 15.3172 4.56497 13.9855 3.92885 12.3268C4.29233 12.4425 4.69728 12.5402 5.13055 12.6224C5.60179 12.7118 6.11963 12.7853 6.67343 12.8429C6.79668 13.7844 6.98633 14.6443 7.24467 15.3762C7.32082 15.5919 7.40442 15.8008 7.49621 16.0003Z" fill="black"/>
</svg>

<svg viewBox="0 0 20 20" fill="none" xmlns="http://www.w3.org/2000/svg"><path fill-rule="evenodd" clip-rule="evenodd" d="M10 18a8 8 0 1 0 .005-16 8 8 0 0 0-.007 16h.002Zm.001-1.5c.195 0 .404-.08.637-.331.246-.264.49-.69.703-1.292a10.61 10.61 0 0 0 .455-1.92 36.81 36.81 0 0 1-1.796.043c-.617 0-1.218-.014-1.796-.042.11.728.264 1.376.455 1.919.213.602.457 1.028.703 1.292.234.251.443.331.638.331h.001Zm-.001-5c.682 0 1.337-.018 1.955-.053.03-.464.045-.948.045-1.447 0-.537-.018-1.055-.052-1.55a36.38 36.38 0 0 1-1.948.05c-.672 0-1.325-.017-1.948-.05a22.413 22.413 0 0 0-.052 1.55c0 .5.015.983.045 1.447.618.035 1.273.053 1.955.053Zm-1.782-4.544c.109-.693.257-1.312.441-1.833.213-.602.457-1.028.703-1.292.234-.251.443-.331.638-.331s.404.08.638.331c.246.264.49.69.703 1.292.184.521.332 1.14.441 1.833-.567.03-1.164.044-1.782.044a35.09 35.09 0 0 1-1.782-.044Zm5.225 1.374a24.42 24.42 0 0 1 .022 2.988c.404-.047.78-.104 1.125-.17.605-.114 1.086-.251 1.432-.4.278-.12.408-.22.46-.273a6.488 6.488 0 0 0-.361-2.664c-.63.205-1.395.357-2.232.466-.146.019-.294.037-.446.053Zm2.002-1.881c-.465.134-1.053.25-1.75.34-.135.018-.272.035-.413.05a12.123 12.123 0 0 0-.527-2.215 7.319 7.319 0 0 0-.251-.624 6.524 6.524 0 0 1 2.941 2.449Zm-8.727.39c-.14-.015-.278-.032-.413-.05a12.143 12.143 0 0 1-1.75-.34 6.524 6.524 0 0 1 2.941-2.45c-.092.2-.175.41-.251.625a12.13 12.13 0 0 0-.527 2.215Zm-2.84.971c.63.206 1.396.358 2.234.467.145.019.293.037.445.053a24.38 24.38 0 0 0-.022 2.988c-.404-.047-.78-.104-1.125-.17-.606-.114-1.086-.251-1.432-.4-.278-.12-.408-.22-.46-.273a6.489 6.489 0 0 1 .361-2.665Zm8.877 7.566c.259-.732.448-1.592.572-2.533a18.741 18.741 0 0 0 1.542-.22c.434-.083.839-.18 1.202-.296a6.522 6.522 0 0 1-3.567 3.673c.092-.2.175-.408.251-.624Zm-5.259.624a6.522 6.522 0 0 1-3.567-3.673c.363.116.768.213 1.202.295.47.09.989.163 1.542.22.124.942.313 1.802.572 2.534.076.216.16.425.251.624Z" fill="#5C5F62"/></svg>
